static/assets/img/icons/theme/media/back.svg

<svg height="24" viewBox="0 0 24 24" width="24" xmlns="http://www.w3.org/2000/svg"><g fill="none" fill-rule="evenodd"><path d="m0 0h24v24h-24z" opacity="0"/><g fill="#000"><path d="m11.0879549 18.2771971 6.7407029-5.8795768c.2081017-.1815167.2296531-.4973648.0481365-.7054664-.0145916-.0167287-.0302811-.0324672-.0469642-.0471108l-6.740703-5.91665331c-.2075352-.18216407-.5234489-.1615967-.705613.04593851-.0800708.09122286-.1242242.20845782-.1242242.32983722v11.79623018c0 .2761424.2238576.5.5.5.120843 0 .2375973-.0437648.328665-.1231986z" transform="matrix(-1 0 0 1 28.25929 0)"/><rect height="12" opacity=".3" rx="1" width="3" x="6" y="6"/></g></g></svg>

<svg width="24px" height="24px" viewBox="0 0 24 24" version="1.1" xmlns="http://www.w3.org/2000/svg" xmlns:xlink="http://www.w3.org/1999/xlink">
    <title>Icon For Back</title>
    <g stroke="none" stroke-width="1" fill="none" fill-rule="evenodd">
        <rect opacity="0" x="0" y="0" width="24" height="24"></rect>
        <path d="M11.0879549,18.2771971 L17.8286578,12.3976203 C18.0367595,12.2161036 18.0583109,11.9002555 17.8767943,11.6921539 C17.8622027,11.6754252 17.8465132,11.6596867 17.8298301,11.6450431 L11.0891271,5.72838979 C10.8815919,5.54622572 10.5656782,5.56679309 10.3835141,5.7743283 C10.3034433,5.86555116 10.2592899,5.98278612 10.2592899,6.10416552 L10.2592899,17.9003957 C10.2592899,18.1765381 10.4831475,18.4003957 10.7592899,18.4003957 C10.8801329,18.4003957 10.9968872,18.3566309 11.0879549,18.2771971 Z" fill="#000000" transform="translate(14.129645, 12.002277) scale(-1, 1) translate(-14.129645, -12.002277) "></path>
        <rect fill="#000000" opacity="0.3" x="6" y="6" width="3" height="12" rx="1"></rect>
    </g>
</svg>
